Papirus/48x48/apps/borderlands-the-pre-sequel.svg

<svg width="48" height="48" version="1" xmlns="http://www.w3.org/2000/svg">
 <rect transform="scale(-1,1)" x="-44" y="4" width="40" height="40" rx="20" ry="20" style="fill:#5f89c9"/>
 <path d="m24 4c11.08 0 20 8.92 20 20 0 0.168-8e-3 0.333-0.0117 0.5-0.2647-10.846-9.0763-19.5-19.988-19.5s-19.724 8.6539-19.988 19.5c-4e-3 -0.16686-0.0117-0.33213-0.0117-0.5 0-11.08 8.92-20 20-20z" style="fill:#ffffff;opacity:.1"/>
 <path d="m43.9883 24.5c0.0041 0.167 0.0117 0.332 0.0117 0.5 0 11.08-8.92 20-20 20s-20-8.92-20-20c0-0.16787 0.0076-0.33314 0.01172-0.5 0.264 10.846 9.076 19.5 19.988 19.5s19.724-8.654 19.988-19.5z" style="opacity:.2"/>
 <path d="m20.680471 9.3518887c1.689068-0.362015 3.453901-0.4465579 5.177919-0.245031 2.50176 0.2924054 4.924124 1.1854943 7.026678 2.5902573 2.078448 1.388537 3.785178 3.219108 5.015162 5.376816 0.47126 0.826667 0.873098 1.708678 1.193963 2.623024 0.224292 0.639785 0.429075 1.380001 0.569404 2.053181 0.729518 3.507126 0.265895 7.123812-1.326299 10.339221-0.115003 0.232139-0.118451 0.238661-0.128562 0.233048-0.01104-0.0049-0.06318-0.07965-0.803985-1.125247-2.789998-3.937882-6.558219-9.309068-10.977758-15.642674-1.346895-1.930133-1.720229-2.464055-1.787819-2.565159-0.419182-0.627257-0.848006-1.088148-1.330524-1.42916-0.115769-0.08163-0.399549-0.243912-0.525585-0.300351-0.580653-0.260146-1.195214-0.336693-1.884627-0.232301-0.190519 0.02884-0.31237 0.05503-0.529368 0.113164-0.216998 0.05812-0.335672 0.09654-0.515044 0.166607-0.649264 0.254192-1.145073 0.628194-1.517734 1.143709-0.08091 0.111919-0.245701 0.394322-0.304953 0.522831-0.247318 0.536518-0.388079 1.149672-0.43749 1.902766-0.01947 0.29226-0.291508 3.409021-0.497954 5.704-0.321405 3.572742-0.631627 6.878362-1.160816 12.353554-0.267619 2.768093-0.427137 4.433876-0.498443 5.19615-0.0165 0.179256-0.03206 0.330504-0.03419 0.335717-0.0064 0.01268-0.01033 0.01146-0.137244-0.07018-0.769909-0.495163-1.54116-1.095946-2.223617-1.732279-1.759448-1.640454-3.11328-3.657749-3.97523-5.922746-0.211953-0.557263-0.353064-0.996556-0.515739-1.603499-0.09869-0.36822-0.139555-0.562235-0.209405-0.873932-0.639905-3.045798-0.376473-6.192725 0.762622-9.099693 0.464025-1.183987 1.084114-2.336165 1.818502-3.378425 1.989296-2.823071 4.807739-4.910395 8.077921-5.9813715 0.522311-0.1710067 1.137378-0.3360152 1.680208-0.4519892zm0.436905 4.2600063c1.209946-0.125726 1.985076 0.728899 2.646621 1.628513 3.132156 5.423203 6.47096 11.296567 9.859216 17.342118 0.974321 1.738415 1.929173 3.448911 1.932709 3.462102 0.0029 0.01068-0.03887 0.05744-0.205233 0.224941-1.909528 1.924889-4.271575 3.325096-6.881294 4.0815-0.326161 0.09419-0.320034 0.09224-0.627359 0.168053-0.710163 0.174395-1.331359 0.289923-2.011437 0.370761-2.021659 0.240291-4.05032 0.0868-6.020856-0.455374-0.07814-0.02149-0.143787-0.04341-0.14625-0.04677-0.0017-0.0064-0.01325-0.526778-0.03641-2.216963-0.09039-6.598751-0.140987-13.430353-0.148451-19.982997 0.106582-1.974039 0.01131-4.029689 1.638752-4.575894z" style="opacity:.2"/>
 <path d="m20.680471 8.3518875c1.689068-0.362015 3.453901-0.4465579 5.177919-0.245031 2.50176 0.2924054 4.924124 1.1854944 7.026678 2.5902575 2.078448 1.388537 3.785178 3.219108 5.015162 5.376816 0.47126 0.826667 0.873098 1.708678 1.193963 2.623024 0.224292 0.639785 0.429075 1.380001 0.569404 2.053181 0.729518 3.507126 0.265895 7.123812-1.326299 10.339221-0.115003 0.232139-0.118451 0.238661-0.128562 0.233048-0.01104-0.0049-0.06318-0.07965-0.803985-1.125247-2.789998-3.937882-6.558219-9.309068-10.977758-15.642674-1.346895-1.930133-1.720229-2.464055-1.787819-2.565159-0.419182-0.627257-0.848006-1.088148-1.330524-1.42916-0.115769-0.08163-0.399549-0.243912-0.525585-0.300351-0.580653-0.2601458-1.195214-0.3366934-1.884627-0.232301-0.190519 0.02884-0.31237 0.05503-0.529368 0.113164-0.216998 0.05812-0.335672 0.09654-0.515044 0.166607-0.649264 0.254192-1.145073 0.628194-1.517734 1.143709-0.08091 0.111919-0.245701 0.394322-0.304953 0.522831-0.247318 0.536518-0.388079 1.149672-0.43749 1.902766-0.01947 0.29226-0.291508 3.409021-0.497954 5.704-0.321405 3.572742-0.631627 6.878362-1.160816 12.353554-0.267619 2.768093-0.427137 4.433876-0.498443 5.19615-0.0165 0.179256-0.03206 0.330504-0.03419 0.335717-0.0064 0.01268-0.01033 0.01146-0.137244-0.07018-0.769909-0.495163-1.54116-1.095946-2.223617-1.732279-1.759448-1.640454-3.11328-3.657749-3.97523-5.922746-0.211953-0.557263-0.353064-0.996556-0.515739-1.603499-0.09869-0.36822-0.139555-0.562235-0.209405-0.873932-0.639905-3.045798-0.376473-6.192725 0.762622-9.099693 0.464025-1.183987 1.084114-2.336165 1.818502-3.378425 1.989296-2.823071 4.807739-4.9103949 8.077921-5.9813717 0.522311-0.1710067 1.137378-0.3360152 1.680208-0.4519892zm0.436905 4.2600065c1.209946-0.125726 1.985076 0.728899 2.646621 1.628513 3.132156 5.423203 6.47096 11.296567 9.859216 17.342118 0.974321 1.738415 1.929173 3.448911 1.932709 3.462102 0.0029 0.01068-0.03887 0.05744-0.205233 0.224941-1.909528 1.924889-4.271575 3.325096-6.881294 4.0815-0.326161 0.09419-0.320034 0.09224-0.627359 0.168053-0.710163 0.174395-1.331359 0.289923-2.011437 0.370761-2.021659 0.240291-4.05032 0.0868-6.020856-0.455374-0.07814-0.02149-0.143787-0.04341-0.14625-0.04677-0.0017-0.0064-0.01325-0.526778-0.03641-2.216963-0.09039-6.598751-0.140987-13.430353-0.148451-19.982997 0.106582-1.974039 0.01131-4.029689 1.638752-4.575894z" style="fill:#f7b400"/>
 <path d="m24.558594 8.0097656c0.434285 0.014757 0.867823 0.047275 1.298828 0.097656 2.50176 0.2924054 4.92479 1.1850806 7.027344 2.5898441 2.078448 1.388537 3.785641 3.219245 5.015625 5.376953 0.47126 0.826667 0.872495 1.708701 1.193359 2.623047 0.224292 0.639785 0.429984 1.379554 0.570312 2.052734 0.24892 1.19667 0.348604 2.405534 0.322266 3.607422-0.035718-0.8708157-0.142305-1.7422717-0.322266-2.6074217-0.140328-0.67318-0.34602-1.412949-0.570312-2.052734-0.320864-0.914346-0.722099-1.79638-1.193359-2.623047-1.229984-2.157708-2.937177-3.988416-5.015625-5.376953-2.102554-1.404763-4.525584-2.2974387-7.027344-2.5898441-1.724018-0.2015269-3.488667-0.1178744-5.177734 0.2441406-0.542831 0.115974-1.157377 0.2821183-1.679688 0.453125-3.270182 1.0709765-6.088829 3.1573975-8.078125 5.9804685-0.734388 1.04226-1.354334 2.194919-1.818359 3.378906-0.66891 1.707056-1.028509 3.497303-1.087891 5.300782-0.064569-2.139992 0.295354-4.278229 1.087891-6.300782 0.464025-1.183987 1.083971-2.336646 1.818359-3.378906 1.989296-2.823071 4.807943-4.9094917 8.078125-5.9804685 0.522311-0.1710067 1.136857-0.337151 1.679688-0.453125 1.266801-0.2715112 2.576051-0.3860689 3.878906-0.3417969zm-3.007813 4.5996094c0.967979 0.09165 1.634039 0.843697 2.212891 1.630859 3.132156 5.423203 6.471119 11.296246 9.859375 17.341797 0.974321 1.738415 1.930058 3.4497 1.933594 3.462891 0.0029 0.01068-0.03871 0.05711-0.205079 0.224609-0.04806 0.04845-0.09981 0.09284-0.148437 0.140625-0.262041-0.472958-0.784245-1.408173-1.580078-2.828125-3.388256-6.045551-6.727219-11.918594-9.859375-17.341797-0.661545-0.899614-1.436539-1.754632-2.646484-1.628906-1.60529 0.53877-1.534704 2.547025-1.634766 4.496094-5.27e-4 -0.303299-0.0036-0.617759-0.0039-0.919922 0.106582-1.974039 0.01123-4.029967 1.638672-4.576172 0.151243-0.01572 0.295311-0.01505 0.433593-2e-3z" style="fill:#ffffff;opacity:.2"/>
</svg>

<svg xmlns="http://www.w3.org/2000/svg" width="48" height="48" version="1">
 <circle style="opacity:0.2" cx="24" cy="25" r="20"/>
 <circle style="fill:#5f89c9" cx="24" cy="24" r="20"/>
 <path style="opacity:0.2" d="M 20.68,9.3519 C 22.37,8.9899 24.134,8.9053 25.858,9.1069 28.36,9.3993 30.783,10.292 32.885,11.697 34.964,13.086 36.67,14.916 37.9,17.074 38.371,17.901 38.773,18.783 39.094,19.697 39.318,20.337 39.523,21.077 39.664,21.75 40.393,25.257 39.929,28.874 38.337,32.089 L 38.209,32.322 C 38.209,32.322 24.707,13.09 24.639,12.989 24.22,12.362 23.791,11.901 23.309,11.56 23.193,11.479 22.909,11.316 22.783,11.26 22.202,11 21.588,10.923 20.898,11.028 20.527,11.083 20.172,11.183 19.854,11.307 19.205,11.561 18.709,11.935 18.336,12.451 18.255,12.563 18.091,12.845 18.031,12.974 17.784,13.51 17.643,14.123 17.594,14.877 L 15.402,38.466 15.265,38.396 C 14.495,37.901 13.724,37.3 13.042,36.664 11.282,35.023 9.9283,33.006 9.0664,30.741 8.8544,30.184 8.4111,28.575 8.3412,28.263 7.7013,25.218 7.9647,22.071 9.1038,19.164 9.5679,17.98 10.188,16.828 10.922,15.785 12.912,12.962 15.73,10.875 19,9.8039 19.523,9.6329 20.138,9.4679 20.68,9.3519 Z M 21.117,13.612 C 22.327,13.486 23.102,14.341 23.764,15.24 L 35.556,36.045 C 35.556,36.045 35.517,36.102 35.351,36.27 33.441,38.194 31.079,39.595 28.469,40.351 27.753,40.558 26.511,40.809 25.831,40.89 23.809,41.13 21.78,40.977 19.81,40.435 L 19.663,40.388 19.479,18.188 C 19.585,16.214 19.49,14.158 21.117,13.612 Z"/>
 <path style="fill:#f7b400" d="M 20.68,8.3519 C 22.37,7.9899 24.134,7.9053 25.858,8.1069 28.36,8.3993 30.783,9.2924 32.885,10.697 34.964,12.086 36.67,13.916 37.9,16.074 38.371,16.901 38.773,17.783 39.094,18.697 39.318,19.337 39.523,20.077 39.664,20.75 40.393,24.257 39.929,27.874 38.337,31.089 L 38.209,31.322 C 38.209,31.322 24.707,12.09 24.639,11.989 24.22,11.362 23.791,10.901 23.309,10.56 23.193,10.479 22.909,10.316 22.783,10.26 22.202,9.9997 21.588,9.9231 20.898,10.028 20.527,10.083 20.172,10.183 19.854,10.307 19.205,10.561 18.709,10.935 18.336,11.451 18.255,11.563 18.091,11.845 18.031,11.974 17.784,12.51 17.643,13.123 17.594,13.877 L 15.402,37.466 15.265,37.396 C 14.495,36.901 13.724,36.3 13.042,35.664 11.282,34.023 9.9283,32.006 9.0664,29.741 8.8544,29.184 8.4111,27.575 8.3412,27.263 7.7013,24.218 7.9647,21.071 9.1038,18.164 9.5679,16.98 10.188,15.828 10.922,14.785 12.912,11.962 15.73,9.8749 19,8.8039 19.523,8.6329 20.138,8.4679 20.68,8.3519 Z M 21.117,12.612 C 22.327,12.486 23.102,13.341 23.764,14.24 L 35.556,35.045 C 35.556,35.045 35.517,35.102 35.351,35.27 33.441,37.194 31.079,38.595 28.469,39.351 27.753,39.558 26.511,39.809 25.831,39.89 23.809,40.13 21.78,39.977 19.81,39.435 L 19.663,39.388 19.479,17.188 C 19.585,15.214 19.49,13.158 21.117,12.612 Z"/>
 <path style="opacity:0.2;fill:#ffffff" d="M 24 4 A 20 20 0 0 0 4 24 A 20 20 0 0 0 4.0215 24.582 A 20 20 0 0 1 24 5 A 20 20 0 0 1 43.979 24.418 A 20 20 0 0 0 44 24 A 20 20 0 0 0 24 4 z"/>
 <path style="fill:#ffffff;opacity:0.2" d="M 24.559 8.0098 C 23.256 7.9655 21.947 8.0801 20.68 8.3516 C 20.138 8.4676 19.523 8.6337 19 8.8047 C 15.73 9.8757 12.912 11.962 10.922 14.785 C 10.188 15.828 9.5676 16.98 9.1035 18.164 C 8.311 20.187 7.951 22.325 8.0156 24.465 C 8.075 22.662 8.4346 20.871 9.1035 19.164 C 9.5676 17.98 10.188 16.828 10.922 15.785 C 12.912 12.962 15.73 10.876 19 9.8047 C 19.523 9.6337 20.138 9.4676 20.68 9.3516 C 22.37 8.9896 24.133 8.9058 25.857 9.1074 C 28.359 9.3998 30.783 10.292 32.885 11.697 C 34.964 13.086 36.67 14.916 37.9 17.074 C 38.371 17.901 38.773 18.783 39.094 19.697 C 39.318 20.337 39.523 21.077 39.664 21.75 C 39.844 22.615 39.951 23.487 39.986 24.357 C 40.013 23.156 39.913 21.947 39.664 20.75 C 39.523 20.077 39.318 19.337 39.094 18.697 C 38.773 17.783 38.371 16.901 37.9 16.074 C 36.67 13.916 34.964 12.086 32.885 10.697 C 30.783 9.2927 28.359 8.3998 25.857 8.1074 C 25.426 8.057 24.993 8.0245 24.559 8.0098 z M 21.551 12.609 C 21.412 12.596 21.268 12.596 21.117 12.611 C 19.49 13.157 19.585 15.214 19.479 17.188 L 19.486 18.043 C 19.581 16.114 19.53 14.144 21.117 13.611 C 22.327 13.485 23.102 14.341 23.764 15.24 L 35.199 35.414 C 35.249 35.365 35.302 35.319 35.352 35.27 C 35.518 35.102 35.557 35.045 35.557 35.045 L 23.764 14.24 C 23.184 13.454 22.519 12.701 21.551 12.609 z"/>
</svg>
